X:1
T:Dolce contrado
T:Dolce contrade
T:Spirito da Reggio (= Gasparo Pratoneri)
T:Source : Musica divina---Anversa---P.Phalesio & G.Bellero---1583. Editor : André Vierendeels (04/12/13).
T:-natural
C:Anonymous
%%score [ 1 2 3 4 ]
L:1/8
Q:1/4=120
M:2/2
K:C
V:1 treble nm="Canto 1" snm="C 1"
V:2 treble nm="Canto 2" snm="C 2"
V:3 treble nm="Alto" snm="A"
V:4 treble-8 nm="Tenor" snm="T"
V:1
 d8 | e4 d4 | d8 | ^c4 z2 c2- | c2 c4 c2 | c2 c2 A4 | A2 E2 E2 D2 | E4 z2 e2 | c2 d2 d4 | %9
w: Dol-|ce con-|tra-|de, O|_ chiu- si'e|che- re val-|li: do- ve'l mio|sol, do-|ve'l mio sol|
 z2 c4 c2 | c4 d2 e2 | f8 | e4 z2 e2- | e2 e2 e4 | d8- | d4 e4 | d6 B2 |"^b" c2 c2 B4 | A4 z2 c2- | %19
w: pur e|quin- ci lon-|ta-|no on-|* de'l mio|du-|* ro|pian- t'ogn'-|hor ri- no-|va O|
 c2 c2 d4 | e2 d2 d4 | c2 c4 c2 | B4 A2 A2 | B2 c2 A2 B2 | c4 z2 e2 | d2 d2 d2 ^c2 | d2 d2 d4- | %27
w: _ ben na-|ti fio- ret-|ti, bian- ch'e|gial- li, che|cor' spes- so so-|lea la|bian- ca ma- *|no: do- ve|
 d2 d2 e2 e2 |:"^b" A3 B c2 c2 | c3 c c2 A2 | c4 c2 c2 | _B2 B2 A4 | A4 z2 d2 |1 d2 d2 e2 e2 :|2 %34
w: _ son gl'oc- chi|mie- * i, do-|ve son gl'oc- chi|mie- i, che|qui non tro-|vo, do-|ve son gl'oc- chi|
 _B2 B2 A4 || A8 |] %36
w: qui non tro-|vo.|
V:2
 A8 | A4 A4- | A2 GF G4 | A4 z2 A2- | A2 A4 A2 | G2 G2 F4 | E4 z2 A2 | G3 F E2 G2 | A2 B2 A4 | %9
w: Dol-|ce con-|tra- * * *|de, O|_ chiu- si'e|che- re val-|li: do-|ve'l mio sol, do-|ve'l mio sol|
 z2 A4 A2 | A4 A2 c2 | c8 | c4 z2 c2- | c2 c2 c4 | _B4 A4 | A8 | D4 z2 D2 | A2 A2 G4 | F4 z2 A2- | %19
w: pur e|quin- ci lon-|ta-|no on-|* de'l mio|du- ro|pian-|to ogn'-|hor ri- no-|va O|
 A2 A2 A4 | A2 A2 G4 | A2 A4 A2 | G4 E4 | z2 E2 F2 G2 | A2 G2 F2 A2 | A2 G2 A4 | A4 z2 A2 | %27
w: _ ben na-|ti fio- ret-|ti, bian- ch'e|gial- li,|che cor' spes-|so so- lea la|bian- ca ma-|no: do-|
 B2 B2 c2 c2 |: c4 A2 A2 | A2 A2 G2 F2 | G4 A2 A2 | F2 G2 E4 | D4 z2 A2 |1 B2 B2 c2 c2 :|2 %34
w: ve son gl'oc- chi|mie- i,- do-|ve son gl'oc- chi|mie- i, che|qui non tro-|vo, do-|ve son gl'oc- chi|
 F2 G2 E4 || ^F8 |] %36
w: qui non tro-|vo.|
V:3
 F8 | E4 F4 | D8 | E4 z2 F2- | F2 F4 F2 | E2 E2 D4 | C2 C2 B,2 A,2 | B,4 z2 E2 | E2 G2 ^F4 | %9
w: ce|con- tra-|de,|O chiu-|_ si'e che-|re val- li:|do- ve'l mio sol,|do- ve'l|mio sol pur|
 z2 E4 E2 | E4 F2 G2 | A8 | G4 z2 G2- | G2 G2 G4- | G4 F4- | F4 E4 | F4 G4 | E2 F2 D4 | D4 z2 E2- | %19
w: e quin-|ci lon- ta-|no:|on- de'l|* mio du|_ ro|_ pian-|t'ogn'- hor|ri- no- va|O ben|
 E2 E2 F4 | E2 F2 D4 | E2 F4 F2 | D4 ^C4 | z2 C2 D3 E | F2 E2 D2 C2 | D2 D2 E4 | D2 F2 F2 F2 | %27
w: _ na- ti|fio- ret- ti,|bian- ch'e gial-|li, che|cor' spes- so|so- lea la bian-|ca ma- no:|do- ve son gl'oc-|
 G2 G2 E4 |: F2 A2 F2 F2 | F2 F2 E2 F2- | F2 E2 F2 F2 | D2 D2 D2 C2 | D2 F2 F3 F |1 G3 F E4 :|2 %34
w: chi mie- i,|do- ve son gl'oc-|chi mie i, _|_ _ che qui|non tro- vo, *|do- ve son gl'oc-|chi mie- qui|
 D2 D2 D2 ^C2 || D8 |] %36
w: non tro- vo. *|Dol-|
V:4
 d8 | c4 d4 | _B8 | A4 z2 F2- | F2 F4 F2 | c2 c2 d4 | A2 A2 G2 F2 | E4 z2 E2 | A2 G2 d4 | %9
w: ce|con- tra-|de,|O chiu-|_ si'e che-|re val- li:|do- ve'l mio sol,|do- ve'l|mio sol pur|
 z2 A4 A2 |"^b" A4 d2 c2 | F8 | c4 z2 c2- | c2 c2 c4 | d8- | d4 c4 | _B6 G2 | A2 F2 G4 | %18
w: e quin-|ci lon- ta-|no:|on- de'l|* mio du-|ro|* pian-|t'ogn'- hor|ri- no- va|
 D4 z2 A2- | A2 A2 d4 | c2 d2 _B4 | A2 F4 F2 | G4 A4 | z2 A2 D2 G2 | F2 C2 D2 A2 | B2 B2 A4 | %26
w: O ben|_ na- ti|fio- ret- ti,|bien- ch'e gial-|li, che|cor' spes- so|so- lea la bian-|ca ma- no:|
 D2 d2 d2 d2 | G2 G2 c4 |: F2 F2 F4- | F2 F2 c2 d2 | c4 F2 F2 |"^b" B2 G2 A4 | D2 d2 d2 d2 |1 %33
w: do- ve son gl'oc-|chi mie- i,|do- ve son|_ gl'oc- chi mie-|i, che qui|non tro- vo,|do- ve son gl'oc-|
 G2 G2 c4 :|2"^b" B2 G2 A4 || D8 |] %36
w: chi mie- qui|non tro- vo.||

